X: 24610
T: Mac Morin's
R: jig
M: 6/8
K: Edorian
|:~E3 FED|EFA BeB|EFE BdB|ABd FED|
~E3 FED|EFA Bde|fed BAF|1 EFE E2B,:|2 ~E3 E2f||
gfe fed|Bee ede|fed cBA|Bdd def|
gfe fed|efd edB|{d}BAF BdF|~E3 E2f|
gfe fed|Bee ede|fed cBA|Bcd def|
gbg faf|efd edB|{d}BAF BdF|EFE ~E3||

